public/assets/standards/rtc/feat-icon-5.svg

<svg width="64" height="64" viewBox="0 0 64 64" fill="none" xmlns="http://www.w3.org/2000/svg">
<path d="M56.8556 61.9401C56.7256 61.8101 56.5556 61.7201 56.3656 61.7101C53.4556 61.4201 51.1756 58.8901 51.1756 55.9701L51.2156 17.9901C51.2156 12.8501 47.0356 8.68005 41.9056 8.68005H1.42562C1.09562 8.68005 0.825616 8.90005 0.705616 9.19005C0.575616 9.49005 0.665616 9.86005 0.895616 10.0901C1.02562 10.2201 1.19562 10.3001 1.37562 10.3201C4.05562 10.6101 6.20562 12.7601 6.49562 15.3501L6.55562 54.0401C6.55562 59.1701 10.7356 63.3501 15.8656 63.3501H56.3156C56.6456 63.3501 56.9156 63.14 57.0456 62.84C57.1656 62.5401 57.0856 62.1801 56.8556 61.9501V61.9401Z" fill="#006D68"/>
<path d="M56.3157 64H15.8757C10.3857 64 5.91566 59.53 5.90566 54.04L5.84566 15.36C5.59566 13.14 3.64566 11.22 1.31566 10.97C0.985656 10.93 0.675657 10.78 0.435657 10.55C0.0156567 10.12 -0.114344 9.47002 0.105656 8.94002C0.335656 8.38002 0.855657 8.02002 1.43566 8.02002H41.9057C47.4057 8.02002 51.8757 12.49 51.8757 17.99L51.8357 55.97C51.8357 58.56 53.8557 60.8 56.4457 61.06C56.7757 61.09 57.0957 61.24 57.3357 61.48C57.7557 61.9 57.8857 62.54 57.6657 63.08C57.4357 63.64 56.9057 64 56.3357 64H56.3157ZM1.42566 9.33002C1.37566 9.33002 1.32566 9.39002 1.30566 9.44002C1.28566 9.49002 1.30566 9.57002 1.35566 9.63002C4.42566 9.99002 6.81566 12.35 7.13566 15.28L7.19566 54.04C7.19566 58.81 11.0857 62.7 15.8557 62.7H56.3057C56.3557 62.7 56.4057 62.64 56.4257 62.59C56.4457 62.54 56.4257 62.46 56.3757 62.41C56.3757 62.41 56.3157 62.37 56.2857 62.37C53.0457 62.04 50.5057 59.23 50.5057 55.97L50.5457 17.99C50.5457 13.21 46.6557 9.33002 41.8857 9.33002H1.42566Z" fill="#006D68"/>
<path d="M63.0854 53.94C62.9454 53.8 62.7654 53.71 62.5654 53.69C59.6754 53.4 57.4154 50.9 57.4154 48L57.4554 10.02C57.4554 4.86003 53.2554 0.660034 48.0954 0.660034H7.61545C7.26545 0.660034 6.97545 0.890034 6.84545 1.21003C6.71545 1.53003 6.80545 1.92003 7.04545 2.16003C7.18545 2.30003 7.36545 2.39003 7.55545 2.41003C10.2054 2.70003 12.3454 4.83003 12.6254 7.40003L12.6854 46.09C12.6854 51.25 16.8854 55.45 22.0454 55.45H62.4954C62.8454 55.45 63.1354 55.23 63.2654 54.91C63.3954 54.59 63.3055 54.21 63.0654 53.96L63.0854 53.94Z" fill="#A5C352"/>
<path d="M62.5055 56.08H22.0555C16.5355 56.08 12.0455 51.59 12.0355 46.07L11.9755 7.39C11.7355 5.2 9.79549 3.3 7.48549 3.05C7.14549 3.01 6.81549 2.86 6.57549 2.61C6.14549 2.17 6.00549 1.5 6.23549 0.95C6.47549 0.37 7.01549 0 7.60549 0H48.0755C53.5955 0 58.0955 4.49 58.0955 10.02L58.0555 48C58.0555 50.57 60.0555 52.79 62.6155 53.04C62.9655 53.08 63.2855 53.23 63.5355 53.48C63.9655 53.92 64.1055 54.58 63.8755 55.14C63.6355 55.72 63.0955 56.09 62.5055 56.09V56.08ZM7.61549 1.31C7.54549 1.31 7.47549 1.38 7.44549 1.45C7.41549 1.52 7.44549 1.63 7.50549 1.69C7.53549 1.72 7.58549 1.74 7.62549 1.75C10.5755 2.07 12.9555 4.41 13.2755 7.31L13.3355 46.07C13.3355 50.87 17.2455 54.78 22.0455 54.78H62.4955C62.5755 54.78 62.6355 54.7 62.6655 54.64C62.6955 54.57 62.6655 54.47 62.6055 54.41C62.6055 54.41 62.5255 54.35 62.4855 54.35C59.2655 54.02 56.7455 51.24 56.7455 48L56.7855 10.02C56.7855 5.22 52.8755 1.31 48.0755 1.31H7.61549Z" fill="#A5C352"/>
<path d="M33.7355 42.41C33.0255 42.41 32.3455 42.12 31.8455 41.6L21.8555 31.15C20.8555 30.11 20.8955 28.45 21.9355 27.46C22.9755 26.46 24.6355 26.5 25.6255 27.54L33.1255 35.39L44.0755 15.05C44.7555 13.78 46.3455 13.3 47.6155 13.99C48.8855 14.67 49.3655 16.26 48.6755 17.53L36.0255 41.04C35.6255 41.78 34.9055 42.28 34.0755 42.39C33.9555 42.41 33.8455 42.41 33.7255 42.41H33.7355Z" fill="white"/>
</svg>

<svg xmlns="http://www.w3.org/2000/svg" width="64" height="64" fill="none" viewBox="0 0 64 64"><path fill="#006d68" d="M56.856 61.94a.75.75 0 0 0-.49-.23c-2.91-.29-5.19-2.82-5.19-5.74l.04-37.98c0-5.14-4.18-9.31-9.31-9.31H1.426c-.33 0-.6.22-.72.51-.13.3-.04.67.19.9.13.13.3.21.48.23 2.68.29 4.83 2.44 5.12 5.03l.06 38.69c0 5.13 4.18 9.31 9.31 9.31h40.45c.33 0 .6-.21.73-.51a.84.84 0 0 0-.19-.89z"/><path fill="#006d68" d="M56.316 64h-40.44c-5.49 0-9.96-4.47-9.97-9.96l-.06-38.68c-.25-2.22-2.2-4.14-4.53-4.39-.33-.04-.64-.19-.88-.42-.42-.43-.55-1.08-.33-1.61.23-.56.75-.92 1.33-.92h40.47c5.5 0 9.97 4.47 9.97 9.97l-.04 37.98c0 2.59 2.02 4.83 4.61 5.09.33.03.65.18.89.42.42.42.55 1.06.33 1.6-.23.56-.76.92-1.33.92zM1.426 9.33c-.05 0-.1.06-.12.11s0 .13.05.19c3.07.36 5.46 2.72 5.78 5.65l.06 38.76c0 4.77 3.89 8.66 8.66 8.66h40.45c.05 0 .1-.06.12-.11s0-.13-.05-.18c0 0-.06-.04-.09-.04-3.24-.33-5.78-3.14-5.78-6.4l.04-37.98c0-4.78-3.89-8.66-8.66-8.66z"/><path fill="#a5c352" d="M63.085 53.94a.85.85 0 0 0-.52-.25c-2.89-.29-5.15-2.79-5.15-5.69l.04-37.98c0-5.16-4.2-9.36-9.36-9.36H7.615c-.35 0-.64.23-.77.55a.9.9 0 0 0 .2.95c.14.14.32.23.51.25 2.65.29 4.79 2.42 5.07 4.99l.06 38.69c0 5.16 4.2 9.36 9.36 9.36h40.45c.35 0 .64-.22.77-.54s.04-.7-.2-.95z"/><path fill="#a5c352" d="M62.506 56.08h-40.45c-5.52 0-10.01-4.49-10.02-10.01l-.06-38.68c-.24-2.19-2.18-4.09-4.49-4.34-.34-.04-.67-.19-.91-.44-.43-.44-.57-1.11-.34-1.66.24-.58.78-.95 1.37-.95h40.47c5.52 0 10.02 4.49 10.02 10.02L58.056 48c0 2.57 2 4.79 4.56 5.04.35.04.67.19.92.44.43.44.57 1.1.34 1.66-.24.58-.78.95-1.37.95zM7.615 1.31c-.07 0-.14.07-.17.14s0 .18.06.24c.03.03.08.05.12.06 2.95.32 5.33 2.66 5.65 5.56l.06 38.76c0 4.8 3.91 8.71 8.71 8.71h40.45c.08 0 .14-.08.17-.14.03-.07 0-.17-.06-.23 0 0-.08-.06-.12-.06-3.22-.33-5.74-3.11-5.74-6.35l.04-37.98c0-4.8-3.91-8.71-8.71-8.71z"/><path fill="#fff" d="M33.736 42.41c-.71 0-1.39-.29-1.89-.81l-9.99-10.45c-1-1.04-.96-2.7.08-3.69 1.04-1 2.7-.96 3.69.08l7.5 7.85 10.95-20.34a2.61 2.61 0 0 1 3.54-1.06c1.27.68 1.75 2.27 1.06 3.54l-12.65 23.51c-.4.74-1.12 1.24-1.95 1.35-.12.02-.23.02-.35.02z"/></svg>
